packages/natds-icons/dist/svg/filled-alert-cancel.svg

<svg width="24" height="24" viewBox="0 0 24 24"  xmlns="http://www.w3.org/2000/svg">
<path id="Vector" d="M20.3986 3.4914C18.2169 1.20065 15.1626 0.000732422 11.8901 0.000732422C5.34509 0.000732422 0 5.45491 0 11.9999C0 18.654 5.45417 23.9991 11.9992 23.9991H12.1083C18.7624 23.9991 24.1074 18.5449 23.9984 11.8908C23.9984 8.72741 22.6894 5.67307 20.3986 3.4914ZM17.8897 17.7813C17.7806 17.8904 17.6715 17.8904 17.5624 17.8904C17.4534 17.8904 17.2352 17.8904 17.1261 17.7813L11.9992 12.7635L6.98134 17.8904C6.87226 17.9995 6.76317 17.9995 6.65409 18.1086C6.54501 18.1086 6.32684 17.9995 6.21776 17.8904C5.99959 17.6723 5.99959 17.345 6.21776 17.1268L11.2356 11.9999L6.10867 6.98207C5.89051 6.76391 5.89051 6.43666 6.10867 6.21849C6.32684 6.00032 6.65409 6.00032 6.87226 6.10941L11.9992 11.1272L17.017 6.00032C17.2352 5.78216 17.5624 5.78216 17.7806 6.00032C17.9988 6.21849 17.9988 6.54574 17.7806 6.76391L12.7628 11.9999L17.8897 17.0178C18.1079 17.2359 18.1079 17.5632 17.8897 17.7813Z" />
</svg>

<svg xmlns="http://www.w3.org/2000/svg" viewBox="0 0 24 24"><g clip-path="url(#clip0_855_12687)"><path d="M20.399 3.491c-2.182-2.29-5.236-3.49-8.509-3.49C5.345 0 0 5.455 0 12c0 6.654 5.454 12 12 12h.108c6.654 0 12-5.455 11.89-12.11 0-3.163-1.309-6.217-3.6-8.399zm-2.51 14.29c-.108.11-.217.11-.327.11-.109 0-.327 0-.436-.11L12 12.764 6.981 17.89c-.109.11-.218.11-.327.219-.109 0-.327-.11-.436-.219a.527.527 0 0 1 0-.763L11.236 12 6.109 6.982a.527.527 0 0 1 0-.764C6.327 6 6.654 6 6.872 6.11L12 11.127 17.017 6a.527.527 0 0 1 .764 0 .527.527 0 0 1 0 .764L12.763 12l5.127 5.018a.527.527 0 0 1 0 .763z"/></g><defs><clipPath id="clip0_855_12687"><path d="M0 0h24v24H0z"/></clipPath></defs></svg>
